X: 111
T: Mackenzie Fraser Reel
C: J. Scott Skinner (1905)
R: reel
Z: 2009 John Chambers <jc:trillian.mit.edu>
F: http://www.abdn.ac.uk/scottskinner/display.php?ID=JSS0866
B: From Regal Gramo. Record, G6617
N: Monikie, Oct, 1905
M: 2/4
L: 1/16
K: D
%%slurgraces
{c}d2 \
| "D"D/D/D FA {c}d2cd | "G"B/B/B (ed) "A"cAAc | "D"dcdA "G"BG"/E"dB | "A"AFGE "D"FDDd |
| "D"D/D/D FA {c}d2cd | "G"B^de=d "A"cABc | "D"dcdA "G"Bgfe | "A7"dABG "D"FDD ||
e \
| "D"fDDf "Em"gEEg | "D/F#"aFFa "G"bGGb | "D/F#"aFFa "Em"gEEg | "D"fDDf "A"eAde |
| "D"fDDf "Em/B"gEEg | "D/F#"aFFa "G"bGGb | "D"afba "A7"geag | "A7"fdec "D"d2 |]

%%sep 1 1 500

